X: 17270
T: Here's To Temperance
R: jig
M: 6/8
K: Edorian
|:B,2E EDE|FAB d2B|def edB|ABd F2D|
B,2E EDE|FAB d2f|edB AFE|FED E3:|
|:B2e ede|f2g fed|Bdd Add|~B3 dBA|
BeB e2e|f2g fed|B2d dBA|FED E3:|

